images/smedia/inst.svg

<svg width="50" height="50" viewBox="0 0 50 50" fill="none" xmlns="http://www.w3.org/2000/svg">
<circle cx="25" cy="25" r="24" fill="#ECF6FF" stroke="#101C5B"/>
<path fill-rule="evenodd" clip-rule="evenodd" d="M19.8828 12.081C21.3135 12.0159 21.7706 12 25.413 12H25.4088C29.0524 12 29.5078 12.0159 30.9384 12.081C32.3663 12.1464 33.3414 12.3725 34.1964 12.7041C35.0794 13.0464 35.8254 13.5046 36.5714 14.2507C37.3175 14.9961 37.7757 15.7444 38.1194 16.6265C38.4491 17.4793 38.6754 18.4539 38.7425 19.8816C38.8068 21.3122 38.8235 21.7694 38.8235 25.4118C38.8235 29.0542 38.8068 29.5102 38.7425 30.9408C38.6754 32.368 38.4491 33.3429 38.1194 34.1959C37.7757 35.0777 37.3175 35.826 36.5714 36.5715C35.8263 37.3175 35.0791 37.7769 34.1973 38.1194C33.3439 38.4511 32.3682 38.6771 30.9404 38.7425C29.5098 38.8076 29.0541 38.8235 25.4113 38.8235C21.7692 38.8235 21.3123 38.8076 19.8817 38.7425C18.4542 38.6771 17.4793 38.4511 16.626 38.1194C15.7444 37.7769 14.9962 37.3175 14.251 36.5715C13.5052 35.826 13.047 35.0777 12.7041 34.1956C12.3727 33.3429 12.1467 32.3683 12.081 30.9405C12.0162 29.5099 12 29.0542 12 25.4118C12 21.7694 12.0168 21.312 12.0808 19.8814C12.145 18.4541 12.3713 17.4793 12.7038 16.6262C13.0475 15.7444 13.5058 14.9961 14.2518 14.2507C14.9973 13.5049 15.7456 13.0467 16.6277 12.7041C17.4804 12.3725 18.455 12.1464 19.8828 12.081ZM30.9627 17.8432C30.9627 16.9544 31.6836 16.2344 32.5721 16.2344C33.4607 16.2344 34.1816 16.9547 34.1816 17.8432C34.1816 18.7318 33.4607 19.4526 32.5721 19.4526C31.6836 19.4526 30.9627 18.7318 30.9627 17.8432ZM18.5254 25.0023C18.5254 21.1987 21.6093 18.1148 25.413 18.1148C29.2166 18.1148 32.2994 21.1987 32.2994 25.0023C32.2994 28.8059 29.2166 31.8884 25.413 31.8884C21.6093 31.8884 18.5254 28.8059 18.5254 25.0023ZM29.8836 25.0023C29.8836 22.5332 27.8819 20.5317 25.413 20.5317C22.9438 20.5317 20.9423 22.5332 20.9423 25.0023C20.9423 27.4712 22.9438 29.4729 25.413 29.4729C27.8819 29.4729 29.8836 27.4712 29.8836 25.0023Z" fill="#101C5B"/>
</svg>

<svg width="50" height="50" fill="none" xmlns="http://www.w3.org/2000/svg"><circle cx="25" cy="25" r="24" fill="#ECF6FF" stroke="#101C5B"/><path fill-rule="evenodd" clip-rule="evenodd" d="M19.883 12.081c1.43-.065 1.888-.081 5.53-.081h-.004c3.643 0 4.099.016 5.53.081 1.427.065 2.402.292 3.257.623.883.342 1.63.8 2.375 1.547a6.581 6.581 0 011.548 2.376c.33.852.556 1.827.623 3.255.065 1.43.082 1.887.082 5.53 0 3.642-.017 4.098-.081 5.529-.068 1.427-.294 2.402-.624 3.255a6.584 6.584 0 01-1.548 2.376 6.56 6.56 0 01-2.374 1.547c-.853.332-1.829.558-3.257.623-1.43.066-1.886.082-5.529.082-3.642 0-4.099-.016-5.53-.081-1.427-.066-2.402-.292-3.255-.624a6.566 6.566 0 01-2.375-1.547 6.573 6.573 0 01-1.547-2.376c-.331-.853-.557-1.828-.623-3.255-.065-1.431-.081-1.887-.081-5.53 0-3.642.017-4.099.08-5.53.065-1.427.291-2.402.624-3.255a6.584 6.584 0 011.548-2.375 6.568 6.568 0 012.376-1.547c.852-.332 1.827-.558 3.255-.623zm11.08 5.762a1.61 1.61 0 113.218 0 1.61 1.61 0 01-3.218 0zm-12.438 7.16a6.888 6.888 0 1113.776 0 6.888 6.888 0 01-13.776 0zm11.359 0a4.47 4.47 0 10-8.942 0 4.47 4.47 0 008.942 0z" fill="#101C5B"/></svg>
